icons/circle/48/ms-word.svg

<svg version="1.1" viewBox="0 0 48 48" xmlns="http://www.w3.org/2000/svg" xmlns:xlink="http://www.w3.org/1999/xlink">
 <defs>
  <linearGradient id="linearGradient1986" x1="1" x2="47" y1="24" y2="24" gradientUnits="userSpaceOnUse">
   <stop style="stop-color:#aac2de" offset="0"/>
   <stop style="stop-color:#7a92ac" offset="1"/>
  </linearGradient>
  <linearGradient id="linearGradient1456" x1="1" x2="47" gradientUnits="userSpaceOnUse">
   <stop style="stop-color:#aac2de" offset="0"/>
   <stop style="stop-color:#b9cde4" offset="1"/>
  </linearGradient>
 </defs>
 <path d="m36.31 5c5.859 4.062 9.688 10.831 9.688 18.5 0 12.426-10.07 22.5-22.5 22.5-7.669 0-14.438-3.828-18.5-9.688 1.037 1.822 2.306 3.499 3.781 4.969 4.085 3.712 9.514 5.969 15.469 5.969 12.703 0 23-10.298 23-23 0-5.954-2.256-11.384-5.969-15.469-1.469-1.475-3.147-2.744-4.969-3.781zm4.969 3.781c3.854 4.113 6.219 9.637 6.219 15.719 0 12.703-10.297 23-23 23-6.081 0-11.606-2.364-15.719-6.219 4.16 4.144 9.883 6.719 16.219 6.719 12.703 0 23-10.298 23-23 0-6.335-2.575-12.06-6.719-16.219z" style="opacity:.05"/>
 <path d="m41.28 8.781c3.712 4.085 5.969 9.514 5.969 15.469 0 12.703-10.297 23-23 23-5.954 0-11.384-2.256-15.469-5.969 4.113 3.854 9.637 6.219 15.719 6.219 12.703 0 23-10.298 23-23 0-6.081-2.364-11.606-6.219-15.719z" style="opacity:.1"/>
 <path d="m31.25 2.375c8.615 3.154 14.75 11.417 14.75 21.13 0 12.426-10.07 22.5-22.5 22.5-9.708 0-17.971-6.135-21.12-14.75a23 23 0 0 0 44.875-7 23 23 0 0 0-16-21.875z" style="opacity:.2"/>
 <g transform="rotate(-90,24,24)" style="fill:url(#linearGradient1986)">
  <path d="m24 1c12.703 0 23 10.297 23 23s-10.297 23-23 23-23-10.297-23-23 10.297-23 23-23z" style="fill:url(#linearGradient1456)"/>
 </g>
 <path d="m19 13c-1.108 0-2 0.892-2 2v3h-5c-0.554 0-1 0.446-1 1v12c0 0.554 0.446 1 1 1h5v3c0 1.108 0.892 2 2 2h16c1.108 0 2-0.892 2-2v-20c0-1.108-0.892-2-2-2z" style="fill:#06263d;opacity:.1"/>
 <path d="m18 12c-1.108 0-2 0.892-2 2v4l10 2 10-2v-4c0-1.108-0.892-2-2-2z" style="fill:#41a5ee"/>
 <path d="m40.03 7.531c3.712 4.084 5.969 9.514 5.969 15.469 0 12.703-10.297 23-23 23-5.954 0-11.384-2.256-15.469-5.969 4.178 4.291 10.01 6.969 16.469 6.969 12.703 0 23-10.298 23-23 0-6.462-2.677-12.291-6.969-16.469z" style="opacity:.1"/>
 <path d="m16 18h20v6l-10 2-10-2z" style="fill:#2b7cd3"/>
 <path d="m16 24h20v6l-10 2-10-2z" style="fill:#185abd"/>
 <path d="m34 36c1.108 0 2-0.892 2-2v-4h-20v4c0 1.108 0.892 2 2 2z" style="fill:#103f91"/>
 <path d="m16 18v14h7c0.554 0 1-0.446 1-1v-12c0-0.554-0.446-1-1-1h-7z" style="opacity:.1"/>
 <path d="m11 17h11c0.554 0 1 0.446 1 1v12c0 0.554-0.446 1-1 1h-11c-0.554 0-1-0.446-1-1v-12c0-0.554 0.446-1 1-1z" style="fill:#185abd"/>
 <path d="m12 20 2 8h1.5l1-5.334 1 5.334h1.5l2-8h-1.5l-1.25 5-1.25-5h-1l-1.25 5-1.25-5h-1.5z" style="fill:#f3f3f9"/>
</svg>

<?xml version="1.0" encoding="UTF-8" standalone="no"?>
<svg
   xmlns:dc="http://purl.org/dc/elements/1.1/"
   xmlns:cc="http://creativecommons.org/ns#"
   xmlns:rdf="http://www.w3.org/1999/02/22-rdf-syntax-ns#"
   xmlns:svg="http://www.w3.org/2000/svg"
   xmlns="http://www.w3.org/2000/svg"
   xmlns:xlink="http://www.w3.org/1999/xlink"
   xmlns:sodipodi="http://sodipodi.sourceforge.net/DTD/sodipodi-0.dtd"
   xmlns:inkscape="http://www.inkscape.org/namespaces/inkscape"
   version="1.1"
   viewBox="0 0 48 48"
   id="svg38"
   sodipodi:docname="ms-word.svg"
   inkscape:version="0.92.3 (2405546, 2018-03-11)">
  <metadata
     id="metadata42">
    <rdf:RDF>
      <cc:Work
         rdf:about="">
        <dc:format>image/svg+xml</dc:format>
        <dc:type
           rdf:resource="http://purl.org/dc/dcmitype/StillImage" />
        <dc:title></dc:title>
      </cc:Work>
    </rdf:RDF>
  </metadata>
  <sodipodi:namedview
     pagecolor="#ffffff"
     bordercolor="#666666"
     borderopacity="1"
     objecttolerance="10"
     gridtolerance="10"
     guidetolerance="10"
     inkscape:pageopacity="0"
     inkscape:pageshadow="2"
     inkscape:window-width="1920"
     inkscape:window-height="1053"
     id="namedview40"
     showgrid="true"
     inkscape:zoom="22.627417"
     inkscape:cx="31.528106"
     inkscape:cy="28.235339"
     inkscape:window-x="0"
     inkscape:window-y="27"
     inkscape:window-maximized="1"
     inkscape:current-layer="svg38">
    <inkscape:grid
       type="xygrid"
       id="grid44" />
  </sodipodi:namedview>
  <defs
     id="defs8">
    <linearGradient
       id="linearGradient1984">
      <stop
         style="stop-color:#6e88a4"
         offset="0"
         id="stop2" />
      <stop
         style="stop-color:#7a92ac"
         offset="1"
         id="stop4" />
    </linearGradient>
    <linearGradient
       id="linearGradient1986"
       x1="1"
       x2="47"
       y1="24"
       y2="24"
       gradientUnits="userSpaceOnUse"
       xlink:href="#linearGradient1984" />
  </defs>
  <path
     d="m36.31 5c5.859 4.062 9.688 10.831 9.688 18.5 0 12.426-10.07 22.5-22.5 22.5-7.669 0-14.438-3.828-18.5-9.688 1.037 1.822 2.306 3.499 3.781 4.969 4.085 3.712 9.514 5.969 15.469 5.969 12.703 0 23-10.298 23-23 0-5.954-2.256-11.384-5.969-15.469-1.469-1.475-3.147-2.744-4.969-3.781zm4.969 3.781c3.854 4.113 6.219 9.637 6.219 15.719 0 12.703-10.297 23-23 23-6.081 0-11.606-2.364-15.719-6.219 4.16 4.144 9.883 6.719 16.219 6.719 12.703 0 23-10.298 23-23 0-6.335-2.575-12.06-6.719-16.219z"
     style="opacity:.05"
     id="path10" />
  <path
     d="m41.28 8.781c3.712 4.085 5.969 9.514 5.969 15.469 0 12.703-10.297 23-23 23-5.954 0-11.384-2.256-15.469-5.969 4.113 3.854 9.637 6.219 15.719 6.219 12.703 0 23-10.298 23-23 0-6.081-2.364-11.606-6.219-15.719z"
     style="opacity:.1"
     id="path12" />
  <path
     d="m31.25 2.375c8.615 3.154 14.75 11.417 14.75 21.13 0 12.426-10.07 22.5-22.5 22.5-9.708 0-17.971-6.135-21.12-14.75a23 23 0 0 0 44.875-7 23 23 0 0 0-16-21.875z"
     style="opacity:.2"
     id="path14" />
  <g
     transform="rotate(-90,24,24)"
     style="fill:url(#linearGradient1986)"
     id="g18">
    <path
       d="m24 1c12.703 0 23 10.297 23 23s-10.297 23-23 23-23-10.297-23-23 10.297-23 23-23z"
       style="fill:url(#linearGradient1986)"
       id="path16" />
  </g>
  <path
     d="m19 13c-1.108 0-2 0.892-2 2v3h-5c-0.554 0-1 0.446-1 1v12c0 0.554 0.446 1 1 1h5v3c0 1.108 0.892 2 2 2h16c1.108 0 2-0.892 2-2v-20c0-1.108-0.892-2-2-2z"
     style="fill:#06263d;opacity:.1"
     id="path20" />
  <path
     d="m40.03 7.531c3.712 4.084 5.969 9.514 5.969 15.469 0 12.703-10.297 23-23 23-5.954 0-11.384-2.256-15.469-5.969 4.178 4.291 10.01 6.969 16.469 6.969 12.703 0 23-10.298 23-23 0-6.462-2.677-12.291-6.969-16.469z"
     style="opacity:.1"
     id="path22" />
  <path
     d="m18 12c-1.108 0-2 0.892-2 2v5h20v-5c0-1.108-0.892-2-2-2z"
     style="fill:#41a5ee"
     id="path24" />
  <path
     d="m16 18h20v7h-20z"
     style="fill:#2b7cd3"
     id="path26" />
  <path
     d="m16 24h20v7h-20z"
     style="fill:#185abd"
     id="path28" />
  <path
     d="m34 36c1.108 0 2-0.892 2-2v-4h-20v4c0 1.108 0.892 2 2 2z"
     style="fill:#103f91"
     id="path30" />
  <path
     d="m16 18v6 2 4 2h7c0.554 0 1-0.446 1-1v-12c0-0.554-0.446-1-1-1h-7z"
     style="opacity:.1"
     id="path32" />
  <path
     d="m11 17h11c0.554 0 1 0.446 1 1v12c0 0.554-0.446 1-1 1h-11c-0.554 0-1-0.446-1-1v-12c0-0.554 0.446-1 1-1z"
     style="fill:#185abd"
     id="path34" />
  <path
     style="fill:#f3f3f9;fill-opacity:1;stroke:none;stroke-width:1px;stroke-linecap:butt;stroke-linejoin:miter;stroke-opacity:1"
     d="M 12 20 L 14 28 L 15.5 28 L 16.5 22.666016 L 17.5 28 L 19 28 L 21 20 L 19.5 20 L 18.25 25 L 17 20 L 16 20 L 14.75 25 L 13.5 20 L 12 20 z "
     id="path46" />
</svg>
